X:244978894563207
T:3-5-11-9-5-6-11-10-8-12-12-8-2-3-9-7
%%setfont-1 Courier-Bold 8
T:$1K.516f::32:17:165:50:161:97:147:123:16:20:108:175:112:18:72:151::$0
T:$1Perm. No.: 244978894563207$0
M:3/8
L:1/8
Q:1/8=111
%%staves [1 2]
V:1 clef=treble
V:2 clef=bass
K:C
%1
[V:1]|: Gce |\
[V:2]|: [E,2C,2]z |\
%2
[V:1] c/G/c/e/G/c/ |\
[V:2] [G,2E,2]z |\
%3
[V:1] (dBG) |\
[V:2] B,,2z |\
%4
[V:1] ce/c/G |\
[V:2] [G,2E,2]z |\
%5
[V:1] [d^F][d^F][d^F] |\
[V:2] C,C,C,   |\
%6
[V:1] g/^f/g/d/B/G/ |\
[V:2] [D,2B,,2][G,B,,] |\
%7
[V:1] e/c'/b/g/a/^f/ \
[V:2] C,D,D,, \
%8a
[V:1]|1 [g2d2B2G2]z :|2
[V:2]|1 G,,G,/=F,/E,/D,/ :|2
%8b
[V:1] [g2d2B2G2]z |:\
[V:2] G,,B,/G,/^F,/E,/ |:\
%9
[V:1] (a^fd) |\
[V:2] [^F,2D,2][F,C,] |\
%10
[V:1] gb/d'/d |\
[V:2] B,,2z |\
%11
[V:1] (egc') |\
[V:2] [G,2C,2][E,C,] |\
%12
[V:1] e/c/B/d/g |\
[V:2] G,G,,z |\
%13
[V:1] ecG |\
[V:2] [E,/C,/]G,/[E,/C,/]G,/[E,/C,/]G,/ |\
%14
[V:1] (Gce) |\
[V:2] [E,2C,2][G,C,] |\
%15
[V:1] f/e/d/c/B/d/ |\
[V:2] F,2G, |\
%16
[V:1] c2z :|]
[V:2] C,G,,C,, :|]
